X: 1990
T: As I Went Out Upon The Ice
R: polka
M: 2/4
K: Adorian
|:g/f/|eA BA|eA Ag/f/|eA c/B/A|GG/A/ Bd|
e>A BA|eA c/B/A|GG/A/ Bd|BA A:|
|:d|e>^d ef/g/|ae fe|d>B de/f/|gd eg|
e>^d ef|a/b/a/e/ fe|de/f/ gB|BA A:|

